icons/svg/special_poi/taj_mahal.svg

<?xml version="1.0" encoding="UTF-8" standalone="no"?>
<!-- Created with Inkscape (http://www.inkscape.org/) -->

<svg
   xmlns:dc="http://purl.org/dc/elements/1.1/"
   xmlns:cc="http://creativecommons.org/ns#"
   xmlns:rdf="http://www.w3.org/1999/02/22-rdf-syntax-ns#"
   xmlns:svg="http://www.w3.org/2000/svg"
   xmlns="http://www.w3.org/2000/svg"
   xmlns:sodipodi="http://sodipodi.sourceforge.net/DTD/sodipodi-0.dtd"
   xmlns:inkscape="http://www.inkscape.org/namespaces/inkscape"
   version="1.0"
   width="580"
   height="580"
   id="svg2"
   sodipodi:version="0.32"
   inkscape:version="0.48.4 r9939"
   sodipodi:docname="statue_of_liberty.svg"
   inkscape:output_extension="org.inkscape.output.svg.inkscape">
  <metadata
     id="metadata2975">
    <rdf:RDF>
      <cc:Work
         rdf:about="">
        <dc:format>image/svg+xml</dc:format>
        <dc:type
           rdf:resource="http://purl.org/dc/dcmitype/StillImage" />
        <cc:license
           rdf:resource="http://web.resource.org/cc/PublicDomain" />
        <dc:language>en</dc:language>
        <dc:title></dc:title>
      </cc:Work>
    </rdf:RDF>
  </metadata>
  <sodipodi:namedview
     inkscape:window-height="995"
     inkscape:window-width="1280"
     inkscape:pageshadow="2"
     inkscape:pageopacity="0.0"
     guidetolerance="10.0"
     gridtolerance="10.0"
     objecttolerance="10.0"
     borderopacity="1.0"
     bordercolor="#666666"
     pagecolor="#ffffff"
     id="base"
     inkscape:zoom="0.32586207"
     inkscape:cx="360.11345"
     inkscape:cy="425.39989"
     inkscape:window-x="0"
     inkscape:window-y="0"
     inkscape:current-layer="svg2"
     showgrid="false"
     inkscape:window-maximized="1" />
  <defs
     id="defs4">
    <inkscape:perspective
       sodipodi:type="inkscape:persp3d"
       inkscape:vp_x="0 : 290 : 1"
       inkscape:vp_y="0 : 1000 : 0"
       inkscape:vp_z="580 : 290 : 1"
       inkscape:persp3d-origin="290 : 193.33333 : 1"
       id="perspective2441" />
    <inkscape:perspective
       id="perspective3452"
       inkscape:persp3d-origin="30 : 20 : 1"
       inkscape:vp_z="60 : 30 : 1"
       inkscape:vp_y="0 : 1000 : 0"
       inkscape:vp_x="0 : 30 : 1"
       sodipodi:type="inkscape:persp3d" />
  </defs>
  <g
     id="g1327">
    <path
       d="M 66.275,1.768 C 24.94,1.768 1.704,23.139 1.704,66.804 L 1.704,516.927 C 1.704,557.771 22.599,579.156 63.896,579.156 L 515.92,579.156 C 557.227,579.156 578.149,558.841 578.149,516.927 L 578.149,66.804 C 578.149,24.203 557.227,1.768 514.628,1.768 C 514.624,1.768 66.133,1.625 66.275,1.768 z "
       style="fill:#111;stroke:#eee;stroke-width:3.40799999"
       id="path1329" />
  </g>
  <path
     inkscape:connector-curvature="0"
     d="m 388.57563,190.43863 c 0,55.20234 -43.37327,98.57562 -98.57563,98.57562 -55.20235,0 -98.57562,-43.37328 -98.57562,-98.57562 0,-65.05992 82.80352,-106.461682 98.57562,-114.347726 15.7721,7.886044 98.57563,49.287806 98.57563,114.347726 z"
     id="path3"
     style="fill:#ffffff;fill-opacity:1" />
  <path
     inkscape:connector-curvature="0"
     d="m 526.58149,229.86887 c 0,33.51571 -25.62967,59.14538 -59.14534,59.14538 -33.51573,0 -59.1454,-25.62967 -59.1454,-59.14538 0,-39.43024 49.28783,-63.0884 59.1454,-69.00294 9.85752,5.91454 59.14534,29.5727 59.14534,69.00294 z"
     id="path5"
     style="fill:#ffffff;fill-opacity:1" />
  <path
     inkscape:connector-curvature="0"
     d="m 171.70925,229.86887 c 0,33.51571 -25.62966,59.14538 -59.14537,59.14538 -33.515704,0 -59.145373,-25.62967 -59.145373,-59.14538 0,-39.43024 49.287813,-63.0884 59.145373,-69.00294 9.85756,5.91454 59.14537,29.5727 59.14537,69.00294 z"
     id="path7"
     style="fill:#ffffff;fill-opacity:1" />
  <circle
     transform="matrix(19.715125,0,0,19.715125,53.418506,52.43274)"
     sodipodi:ry="0.69999999"
     sodipodi:rx="0.69999999"
     sodipodi:cy="0.80000001"
     sodipodi:cx="12"
     cx="12"
     cy="0.80000001"
     r="0.69999999"
     id="circle9"
     style="fill:#ffffff;fill-opacity:1" />
  <path
     inkscape:connector-curvature="0"
     d="m 506.8664,308.72937 v -59.14538 h -78.86052 v 39.43026 H 368.8605 V 249.58399 H 211.13951 v 39.43026 H 151.99413 V 249.58399 H 73.133634 v 59.14538 H 53.418506 v 216.86638 h 49.287814 c 0,0 0,-47.3163 0,-49.28782 0,-15.7721 29.57267,-29.57268 29.57267,-29.57268 0,0 29.5727,13.80058 29.5727,29.57268 0,0 0,49.28782 0,49.28782 h 49.28782 c 0,0 0,-88.71806 0,-98.57563 0,-33.51572 78.86049,-78.8605 78.86049,-78.8605 0,0 78.8605,45.34478 78.8605,78.8605 0,3.94303 0,98.57563 0,98.57563 h 49.28782 c 0,0 0,-47.3163 0,-49.28782 0,-15.7721 29.57268,-29.57268 29.57268,-29.57268 0,0 29.57267,13.80058 29.57267,29.57268 0,0 0,49.28782 0,49.28782 h 49.28782 V 308.72937 H 506.8664 z M 161.85169,407.305 h -59.14537 c 0,-3.94303 0,-45.34479 0,-49.28782 0,-15.7721 29.57267,-29.57268 29.57267,-29.57268 0,0 29.5727,13.80058 29.5727,29.57268 0,3.94303 0,45.34479 0,49.28782 z m 315.44198,0 h -59.14535 c 0,-3.94303 0,-45.34479 0,-49.28782 0,-15.7721 29.57268,-29.57268 29.57268,-29.57268 0,0 29.57267,13.80058 29.57267,29.57268 0,3.94303 0,45.34479 0,49.28782 z"
     id="path11"
     style="fill:#ffffff;fill-opacity:1" />
</svg>

<svg width="580" height="580" viewBox="0 0 580 580" fill="none" xmlns="http://www.w3.org/2000/svg">
<g clip-path="url(#clip0)">
<path d="M66.2751 1.76799C24.9401 1.76799 1.7041 23.139 1.7041 66.804V516.927C1.7041 557.771 22.5991 579.156 63.8961 579.156H515.92C557.227 579.156 578.149 558.841 578.149 516.927V66.804C578.149 24.203 557.227 1.76799 514.628 1.76799C514.624 1.76799 66.1331 1.62499 66.2751 1.76799Z" fill="#111111" stroke="#EEEEEE" stroke-width="3.408"/>
<path d="M388.576 190.439C388.576 245.641 345.202 289.014 290 289.014C234.798 289.014 191.424 245.641 191.424 190.439C191.424 125.379 274.228 83.977 290 76.0909C305.772 83.977 388.576 125.379 388.576 190.439Z" fill="white"/>
<path d="M526.581 229.869C526.581 263.385 500.952 289.014 467.436 289.014C433.92 289.014 408.291 263.385 408.291 229.869C408.291 190.439 457.578 166.781 467.436 160.866C477.293 166.781 526.581 190.439 526.581 229.869V229.869Z" fill="white"/>
<path d="M171.709 229.869C171.709 263.385 146.08 289.014 112.564 289.014C79.0481 289.014 53.4185 263.385 53.4185 229.869C53.4185 190.439 102.706 166.781 112.564 160.866C122.421 166.781 171.709 190.439 171.709 229.869V229.869Z" fill="white"/>
<path d="M290 82.0054C297.622 82.0054 303.8 75.8267 303.8 68.2048C303.8 60.583 297.622 54.4042 290 54.4042C282.378 54.4042 276.199 60.583 276.199 68.2048C276.199 75.8267 282.378 82.0054 290 82.0054Z" fill="white"/>
<path d="M506.866 308.729V249.584H428.006V289.014H368.86V249.584H211.139V289.014H151.994V249.584H73.1336V308.729H53.4185V525.596H102.706C102.706 525.596 102.706 478.279 102.706 476.308C102.706 460.536 132.279 446.735 132.279 446.735C132.279 446.735 161.852 460.536 161.852 476.308V525.596H211.139C211.139 525.596 211.139 436.878 211.139 427.02C211.139 393.504 290 348.16 290 348.16C290 348.16 368.86 393.504 368.86 427.02C368.86 430.963 368.86 525.596 368.86 525.596H418.148C418.148 525.596 418.148 478.279 418.148 476.308C418.148 460.536 447.721 446.735 447.721 446.735C447.721 446.735 477.294 460.536 477.294 476.308V525.596H526.581V308.729H506.866ZM161.852 407.305H102.706C102.706 403.362 102.706 361.96 102.706 358.017C102.706 342.245 132.279 328.444 132.279 328.444C132.279 328.444 161.852 342.245 161.852 358.017C161.852 361.96 161.852 403.362 161.852 407.305ZM477.294 407.305H418.148C418.148 403.362 418.148 361.96 418.148 358.017C418.148 342.245 447.721 328.444 447.721 328.444C447.721 328.444 477.294 342.245 477.294 358.017C477.294 361.96 477.294 403.362 477.294 407.305Z" fill="white"/>
</g>
<defs>
<clipPath id="clip0">
<path d="M0 0H580V580H0V0Z" fill="white"/>
</clipPath>
</defs>
</svg>
